X:374
T:B374-  Phyllis the Lovely
Q:1/4=120
L:1/4
M:3/4
K:D
dA/A/ A/A/|A(G/F/) (E/D/)|(d/e/)ff|f3|\
(f/g/)aa|a(g/f/) (e/d/)|g(a/g/) (f/g/)|e3|\
ee/e/ e/e/|eag|fba|g2f|\
ee/e/ e/e/|eag|f(g/f/) (e/f/)|d3|]

